!!!COM: Mozart, Wolfgang Amadeus
!!!CDT: 1756/01/27/-1791/12/05/
!!!CNT: German
!!!OTL: Piano Sonata No. 2 in F major
!!!SCT1: K<sup>1</sup> 280
!!!SCT2: K<sup>6</sup> 189e
!!!OMV: Mvmt. 3
!!!OMD: Presto
!!!ODT: 1774///
**kern	**kern	**dynam
*staff2	*staff1	*staff1/2
*>[A,A,B,B]	*>[A,A,B,B]	*>[A,A,B,B]
*>norep[A,B]	*>norep[A,B]	*>norep[A,B]
*>A	*>A	*>A
*clefF4	*clefG2	*clefG2
*k[b-]	*k[b-]	*k[b-]
*F:	*F:	*F:
*M3/8	*M3/8	*M3/8
*MM160	*MM160	*MM160
8r	(16ccc\LL	f
.	16aa\JJ	.
=1	=1	=1
4.r	8ff'\L)	.
.	8ff'\	.
.	8ff'\J	.
*clefG2	*	*
=2	=2	=2
.	32eeq/	.
8g/ 8cc/	8bb-\	p
8r	8r	.
8r	8r	.
=3	=3	=3
.	32ffq/	.
8f/ 8cc/	8aa\	.
8r	8r	.
8r	8r	.
=4	=4	=4
.	32eeq/	.
8b-\ 8cc\	8gg\	.
8r	8r	.
8r	8r	.
=5	=5	=5
(4.a/	(16ff\LL	f
.	16gg\	.
.	16aa\	.
.	16ff\	.
.	16cc\	.
.	16cc#\JJ	.
=6	=6	=6
8b-/)	16dd\LL	.
.	16ee\	.
8r	16ff\	.
.	16dd\	.
8r	16g\	.
.	16a\JJ	.
=7	=7	=7
(8G/L	16b-\LL	.
.	16cc\	.
8B-/	16dd\	.
.	16b-\	.
8Bn/J	16d\	.
.	16f\JJ	.
=8	=8	=8
8c/)	16e/LL	.
.	16f/	.
8r	16g/	.
.	16e/JJ	.
8r	16cc/LL	.
.	16a/JJ	.
=9	=9	=9
4.r	8f'/L)	.
.	8f'/	.
.	8f'/J	.
*clefF4	*	*
=10	=10	=10
.	(32eq/	.
8G\ 8c\	8b-/)	p
8r	8r	.
8r	8r	.
=11	=11	=11
.	(32fq/	.
8F\ 8c\	8a/)	.
8r	8r	.
8r	8r	.
=12	=12	=12
.	(32eq/	.
8B-\ 8c\	8g/)	.
8r	8r	.
8r	8r	.
=13	=13	=13
!	!LO:S:a	!
4.AA\ (4.A\	(16f/LL	f
.	16g/	.
.	16a/	.
.	16b-/	.
.	16cc/	.
.	16cc#/JJ	.
=14	=14	=14
8BB-\ 8B-\)	16dd\LL	.
.	16ee\	.
8r	16ff\	.
.	16gg\	.
8r	16aa\	.
.	16bb-\JJ	.
=15	=15	=15
8r	8ccc'\)	.
8c\L	8a\ 8ff\L	.
8C\J	8g\ 8ee\J	.
=16	=16	=16
8F/L	4a\ 4ff\	.
8FF/	.	.
8FF/J	8r	.
=17	=17	=17
8FF/L	(8d/ 8b-/L	p
8FF/	8c/ 8a/	.
8FF/J	8B-/) 8g/J	.
=18	=18	=18
8FF/L	(8B-/ 8g/L	.
8FF/	8A/) 8f/	.
8FF/J	8A'/ 8f'/J	.
=19	=19	=19
8FF/L	8A'/ 8f'/L	.
8FF/	8B-'/ 8g'/	.
8FF/J	8G'/ 8e'/J	.
=20	=20	=20
8FF/L	8A/ 8f/	.
8F/	8r	.
8F/J	8r	.
=21	=21	=21
8F\L	8b-\ (8dd\L	.
8F\	8a\ 8cc\	.
8F\J	8g\ 8b-\J)	.
=22	=22	=22
8F\L	(8g/ 8b-/L	.
8F\	8f/) 8a/	.
8F\J	8f'/ 8a'/J	.
=23	=23	=23
8F\L	8f'/ 8a'/L	.
8F\	8g'/ 8b-'/	.
8F\J	8e'/ 8g'/J	.
=24	=24	=24
8F\L	8f/ 8a/	.
8F\	8r	.
8F\J	8r	.
*clefG2	*	*
=25	=25	=25
8f/	16r	f
.	(16a\LL	.
8r	16dd\	.
.	16ff\JJ	.
16r	8aa\)	.
(16f/	.	.
=26	=26	=26
8e/)	16r	.
.	(16g\LL	.
8r	16cc\	.
.	16ee\JJ	.
16r	8gg\)	.
(16e/	.	.
=27	=27	=27
8d/)	16r	.
.	(16f/LL	.
8r	16bn/	.
.	16dd/JJ	.
16r	8ff\)	.
(16d/	.	.
=28	=28	=28
8c/)	16r	.
.	(16e/LL	.
8r	16g/	.
.	16cc/JJ	.
16r	8ee\)	.
(16c/	.	.
=29	=29	=29
4f/)	16r	.
.	(16a\LL	.
.	16dd\	.
.	16cc#\	.
8r	16ee\	.
.	16dd\JJ	.
=30	=30	=30
4.r	16ff\LL	.
.	16ee\	.
.	16gg\	.
.	16ff\	.
.	16aa\	.
.	16gg#\JJ	.
*clefF4	*	*
=31	=31	=31
8r	8aa\)	.
8r	8r	.
(8F#\	8e/ (8cc/	p
=32	=32	=32
8G\)	8d/ 8bn/)	.
8r	8r	.
(8FF#/	8r	f
=33	=33	=33
8GG/)	8r	.
8r	8r	.
*clefG2	*	*
(8f#/	8ee\ (8ccc\	p
=34	=34	=34
8g/)	8dd\ 8bbn\)	.
8r	8r	.
(8ff#\	8r	f
=35	=35	=35
8gg\)	8r	.
8r	8r	.
*clefF4	*	*
(8F#\	(8e/ 8cc/	p
=36	=36	=36
8G\)	8d/) 8bn/	f
8r	8r	.
(8FF#/	8r	.
=37	=37	=37
8GG/)	4.r;	.
8r	.	.
8r;	.	.
=38	=38	=38
4.r	8.ffn\L	p
.	16ff\k	.
.	8ff\J	.
=39	=39	=39
.	(32ffq/LLL	.
.	32ggq/JJJ	.
4.r	8.aa\L)	.
.	16gg\k	.
.	8ff\J	.
=40	=40	=40
4.r	8.ff\L	.
.	16ff\k	.
.	8ff\J	.
=41	=41	=41
.	32ffq/LLL	.
.	32ggq/JJJ	.
4.r	8.aa\L	.
.	16gg\k	.
.	8ff\J	.
*clefG2	*	*
=42	=42	=42
!LO:TX:a:t=legato	!	!
16c/LL	8ee\	.
16g/	.	.
16e/	8r	.
16g/	.	.
16c/	8ee\	.
16g/JJ	.	.
=43	=43	=43
16Bn/LL	(4gg\	fp
16g/	.	.
16d/	.	.
16g/	.	.
16B/	8ff\)	.
16g/JJ	.	.
=44	=44	=44
16c/LL	8ee\	.
16g/	.	.
16e/	8r	.
16g/	.	.
16c/	8ee\	.
16g/JJ	.	.
=45	=45	=45
16Bn/LL	(4gg\	fp
16g/	.	.
16d/	.	.
16g/	.	.
16B/	8ff\)	.
16g/JJ	.	.
=46	=46	=46
16c/LL	8ee\	.
16e/	.	.
16g/	8r	.
16cc/	.	.
16bn/	8ee\	.
16cc/JJ	.	.
=47	=47	=47
4a/ 4cc/	(8gg\L	f
.	8ff\)	.
8g/ 8bn/	8ee\J	p
=48	=48	=48
4f/ 4a/	(8ee\L	f
.	8dd\)	.
(8f#/	8cc\J	p
=49	=49	=49
8g/)	8.ccT\L	.
8r	.	.
.	16dd\k	.
8r	8bn\J	.
=50	=50	=50
8.d/L	8.ffn\L	p
16d/k	16ff\k	.
8d/J	8ff\J	.
=51	=51	=51
(32dq/LLL	(32ffq/LLL	.
32eq/JJJ	32ggq/JJJ	.
8.f/L)	8.aa\L)	.
16e/k	16gg\k	.
8d/J	8ff\J	.
=52	=52	=52
8.d/L	8.ff\L	.
16d/k	16ff\k	.
8d/J	8ff\J	.
=53	=53	=53
(32dq/LLL	(32ffq/LLL	.
32eq/JJJ	32ggq/JJJ	.
8.f/L)	8.aa\L)	.
16e/k	16gg\k	.
8d/J	8ff\J	.
=54	=54	=54
!	!LO:TX:a:t=legato	!
8c/	16ee\LL	.
.	16cc\	.
8r	16g\	.
.	16cc\	.
8r	16ee\	.
.	16cc\JJ	.
*clefF4	*	*
=55	=55	=55
4.BBn\ (4.Bn\	16gg\LL	fp
.	16g\	.
.	16ff#\	.
.	16g\	.
.	16ffn\	.
.	16g\JJ	.
=56	=56	=56
8C\ 8c\)	16ee\LL	.
.	16cc\	.
8r	16g\	.
.	16cc\	.
8r	16ee\	.
.	16cc\JJ	.
=57	=57	=57
4.BBn\ (4.Bn\	16gg\LL	fp
.	16g\	.
.	16ff#\	.
.	16g\	.
.	16ffn\	.
.	16g\JJ	.
=58	=58	=58
8C\ 8c\)	16ee\LL	.
.	16gg\	.
8r	16ccc\	.
.	16bbn\	.
8r	16aa\	.
.	16gg\JJ	.
*clefG2	*	*
=59	=59	=59
4a/ 4cc/	16ff\LL	f
.	16gg\	.
.	16aa\	.
.	16ff\	.
8g/ 8bn/	16dd#\	p
.	16ee\JJ	.
=60	=60	=60
4f/ 4a/	16ddn\LL	f
.	16ee\	.
.	16ff\	.
.	16dd\	.
8e/ 8g/	16bn\	p
.	16cc\JJ	.
=61	=61	=61
8f/L	16dd\LL	f
.	16ff\	.
8g/	16ee\	.
.	16cc\	.
8G/J	16bn\	.
.	16dd\JJ	.
=62	=62	=62
8c/	16cc\LL	.
.	16dd\	.
8r	16ee\	.
.	16cc\	.
8r	16a\	.
.	16g\JJ	.
*clefF4	*	*
=63	=63	=63
4A\ 4c\	16f/LL	f
.	16g/	.
.	16a/	.
.	16f/	.
8G\ 8BnX\	16d#/	p
.	16e/JJ	.
=64	=64	=64
4F\ 4A\	16dn/LL	f
.	16e/	.
.	16f/	.
.	16d/	.
8E\ 8G\	16Bn/	p
.	16c/JJ	.
=65	=65	=65
8F\L	16d/LL	f
.	16f/	.
8G\	16e/	.
.	16c/	.
8GG\J	16Bn/	.
.	16d/JJ	.
=66	=66	=66
8C/	8c/	.
8r	8g'/L	p
8r	8e'/J	.
=67	=67	=67
8r	8c'/	.
8E\ 8B-X\L	8r	.
8E\ 8B-\J	8r	.
=68	=68	=68
8F\ 8A\	8r	.
8r	8cc'/L	.
8r	8a'/J	.
=69	=69	=69
8r	8f'/	.
8A\ 8c\L	8r	.
8A\ 8c\J	8r	.
=70	=70	=70
8G\ 8Bn\	8r	.
8r	8ff'\L	.
8r	8dd'\J	.
=71	=71	=71
8r	8bn'\	.
8G\ 8f\L	8r	.
8G\ 8f\J	8r	.
=72	=72	=72
8c\ 8e\	16r	.
.	(16cc\LL	f
8r	16bn\	.
.	16cc\	.
8r	16ee\	.
.	16gg\JJ)	.
=73	=73	=73
8G\ 8d\	16r	.
.	(16ff\LL	.
8r	16ee\	.
.	16ff\	.
8r	16dd\	.
.	16bn\JJ)	.
=74	=74	=74
8c\ 8e\	16r	.
.	(16cc\LL	.
8r	16bn\	.
.	16cc\	.
8r	16ee\	.
.	16gg\JJ)	.
=75	=75	=75
8G\ 8d\	16r	.
.	(16ff\LL	.
8r	16ee\	.
.	16ff\	.
8r	16dd\	.
.	16bn\JJ	.
=76	=76	=76
(16C\LL	8cc\L)	.
16c\	.	.
16e\	8ee\ 8ccc\	.
16c\	.	.
16G\	8ee\ 8ccc\J	.
16E\JJ	.	.
=77	=77	=77
8C/)	8ee\ 8ccc\	.
8r	8r	.
=:|!|:	=:|!|:	=:|!|:
*>B	*>B	*>B
8r	8r	.
=78	=78	=78
4.r	8.cc\L	p
.	16cc\k	.
.	8cc\J	.
=79	=79	=79
.	(32ccq/LLL	.
.	32ddq/JJJ	.
4.r	8.ee-\L)	.
.	16dd\k	.
.	8cc\J	.
=80	=80	=80
4.r	8.cc\L	.
.	16cc\k	.
.	8cc\J	.
=81	=81	=81
.	(32ccq/LLL	.
.	32ddq/JJJ	.
4.r	8.ee-\L)	.
.	16dd\k	.
.	8cc\J	.
=82	=82	=82
(16DD/LL	4.aa\ 4.ccc\	f
16D/	.	.
16EE/	.	.
16E/	.	.
16FF#/	.	.
16F#/JJ	.	.
=83	=83	=83
16GG\LL	[4.gg\ 4.bb-\	.
16G\	.	.
16AA\	.	.
16A\	.	.
16BB-\	.	.
16B-\JJ	.	.
=84	=84	=84
*	*^	*
16C\LL	4.aa/	4gg\]	.
16c\	.	.	.
16AA\	.	.	.
16A\	.	.	.
16D\	.	8ff#\	.
16d\JJ)	.	.	.
=85	=85	=85	=85
4G\ 4B-\	4gg/	4gg\	.
8r	8r	8ryy	.
*	*v	*v	*
=86	=86	=86
4.r	8.b-\L	p
.	16b-\k	.
.	8b-\J	.
=87	=87	=87
.	(32b-q/LLL	.
.	32ccq/JJJ	.
4.r	8.dd-\L)	.
.	16cc\k	.
.	8b-\J	.
=88	=88	=88
4.r	8.b-\L	.
.	16b-\k	.
.	8b-\J	.
=89	=89	=89
.	(32b-q/LLL	.
.	32ccq/JJJ	.
4.r	8.dd-\L)	.
.	16cc\k	.
.	8b-\J	.
=90	=90	=90
4.G\ 4.B-\	(16c/LL	f
.	16cc/	.
.	16dn/	.
.	16ddn/	.
.	16en/	.
.	16een/JJ	.
=91	=91	=91
4.F\ 4.A\	16f\LL	.
.	16ff\	.
.	16g\	.
.	16gg\	.
.	16a\	.
.	16aa\JJ)	.
=92	=92	=92
(16CC/LL	4.gg\ 4.bb-\	.
16C/	.	.
16DD/	.	.
16D/	.	.
16EE/	.	.
16E/JJ	.	.
=93	=93	=93
16FF/LL	4.ff\ 4.aa\	.
16F/	.	.
16GG/	.	.
16G/	.	.
16AA/	.	.
16A/JJ)	.	.
=94	=94	=94
4.E\ 4.G\	(16A/LL	.
.	16a/	.
.	16Bn/	.
.	16bn/	.
.	16c#/	.
.	16cc#/JJ	.
=95	=95	=95
4.D\ 4.F\	16d/LL	.
.	16dd/	.
.	16e/	.
.	16ee/	.
.	16f/)	.
.	16ff/JJ	.
=96	=96	=96
(16AAA/LL	4.ee\ 4.gg\	.
16AA/	.	.
16BBBn/	.	.
16BBn/	.	.
16CC#/	.	.
16C#/JJ	.	.
=97	=97	=97
16DD/LL	4.dd\ 4.ff\	.
16D/	.	.
16EE/	.	.
16E/	.	.
16FF/	.	.
16F/JJ)	.	.
=98	=98	=98
8G\	16r	.
.	(16ee-\LL	p
8r	16dd\	.
.	16ee-\	.
*clefG2	*	*
(8g/ (8b-/	16gg\	.
.	16ee-\JJ)	.
=99	=99	=99
8f/) 8a/)	16r	.
.	(16dd\LL	.
8r	16cc#\	.
.	16dd\	.
(8f/ (8a/	16ff\	.
.	16dd\JJ)	.
=100	=100	=100
8en/) 8g/)	16r	.
.	(16cc#\LL	.
8r	16bn\	.
.	16cc#\	.
(8e/ 8g/	16een\	.
.	16cc#\JJ)	.
=101	=101	=101
8f/) 8a/)	16r	.
.	(16dd\LL	.
8r	16cc#\	.
.	16dd\	.
8f/ 8a/	16ff\	.
.	16dd\JJ)	.
*clefF4	*	*
=102	=102	=102
16r	8dd\ 8gg#\ 8ddd\	f
(16B-X\LL	.	.
16A\	8r	.
16B-\	.	.
16d\	8r	.
16B-\JJ)	.	.
=103	=103	=103
16r	8ee\ 8aa\ 8ccc#\	.
(16A\LL	.	.
16G#\	8r	.
16A\	.	.
16c#\	8r	.
16A\JJ)	.	.
=104	=104	=104
16r	8dd\ 8gg#\ 8ddd\	.
(16BB-/LL	.	.
16AA/	8r	.
16BB-/	.	.
16D/	8r	.
16BB-/JJ)	.	.
=105	=105	=105
16r	8ee\ 8aa\ 8ccc#\	.
(16AA/LL	.	.
16GG#/	8r	.
16AA/	.	.
16C#/	8r	.
16AA/JJ)	.	.
=106	=106	=106
8AAA/	4.r	.
8r	.	.
8r	.	.
=107	=107	=107
4.r	8r	.
.	8r	.
.	(16cccn\LL	f
.	16aa\JJ	.
=108	=108	=108
4.r	8ff'\L)	.
.	8ff'\	.
.	8ff'\J	.
*clefG2	*	*
=109	=109	=109
.	(32eeq/	.
8g/ 8ccn/	8bb-\)	p
8r	8r	.
8r	8r	.
=110	=110	=110
.	(32ffq/	.
8f/ 8cc/	8aa\)	.
8r	8r	.
8r	8r	.
=111	=111	=111
.	(32eeq/	.
8b-\ 8cc\	8gg\)	.
8r	8r	.
8r	8r	.
=112	=112	=112
(4.a/	(16ff\LL	f
.	16gg\	.
.	16aa\	.
.	16ff\	.
.	16cc\	.
.	16cc#\JJ	.
=113	=113	=113
8b-/)	16dd\LL	.
.	16ee\	.
8r	16ff\	.
.	16dd\	.
8r	16g\	.
.	16a\JJ	.
=114	=114	=114
(8G/L	16b-/LL	.
.	16cc/	.
8B-/	16dd/	.
.	16b-/	.
8Bn/J	16d/	.
.	16f/JJ	.
=115	=115	=115
8c/)	16e/LL	.
.	16f/	.
8r	16g/	.
.	16e/JJ	.
8r	16cc/LL	.
.	16a/JJ	.
=116	=116	=116
4.r	8f'/L)	.
.	8f'/	.
.	8f'/J	.
*clefF4	*	*
=117	=117	=117
!	!LO:S:a	!
.	(32eq/	.
8G\ 8c\	8b-\)	p
8r	8r	.
8r	8r	.
=118	=118	=118
.	(32fq/	.
8F\ 8c\	8a/)	.
8r	8r	.
8r	8r	.
=119	=119	=119
.	(32eq/	.
8B-\ 8c\	8g/)	.
8r	8r	.
8r	8r	.
=120	=120	=120
4.AA\ (4.A\	(16f/LL	f
.	16g/	.
.	16a/	.
.	16b-/	.
.	16cc/	.
.	16cc#/JJ	.
=121	=121	=121
8BB-\ 8B-\)	16dd\LL	.
.	16ee\	.
8r	16ff\	.
.	16gg\	.
8r	16aa\	.
.	16bb-\JJ	.
=122	=122	=122
8r	8ccc'\)	.
8c\L	8a\ 8ff\L	.
8C\J	8g\ 8ee\J	.
=123	=123	=123
8F/L	4a\ 4ff\	.
8FF/	.	.
8FF/J	8r	.
=124	=124	=124
8FF/L	(8d/ 8b-/L	p
8FF/	8c/ 8a/	.
8FF/J	8B-/) 8g/J	.
=125	=125	=125
8FF/L	(8B-/ 8g/L	.
8FF/	8A/) 8f/	.
8FF/J	8A'/ 8f'/J	.
=126	=126	=126
8FF/L	8A'/ 8f'/L	.
8FF/	8B-'/ 8g'/	.
8FF/J	8G'/ 8e'/J	.
=127	=127	=127
8FF/L	8A/ 8f/	.
8F/	8r	.
8F/J	8r	.
=128	=128	=128
8F\L	8b-\ (8dd\L	.
8F\	8a\ 8cc\	.
8F\J	8g\ 8b-\J)	.
=129	=129	=129
8F\L	(8g/ 8b-/L	.
8F\	8f/) 8a/	.
8F\J	8f'/ 8a'/J	.
=130	=130	=130
8F\L	8f'/ 8a'/L	.
8F\	8g'/ 8b-'/	.
8F\J	8e'/ 8g'/J	.
=131	=131	=131
8F\L	8f/ 8a/	.
8F\	8r	.
8F\J	8r	.
*clefG2	*	*
=132	=132	=132
8f/	16r	.
.	(16a\LL	f
8r	16dd\	.
.	16ff\JJ	.
16r	8aa\)	.
(16f/	.	.
=133	=133	=133
8e/)	16r	.
.	(16g\LL	.
8r	16cc\	.
.	16ee\JJ	.
16r	8gg\)	.
(16e/	.	.
=134	=134	=134
8d/)	16r	.
!	!LO:S:a	!
.	(16f/LL	.
8r	16bn/	.
.	16dd/JJ	.
16r	8ff\)	.
(16d/	.	.
=135	=135	=135
8c/)	16r	.
!	!LO:S:a	!
.	(16e/LL	.
8r	16g/	.
.	16cc/JJ	.
16r	8ee\)	.
(16cc\	.	.
=136	=136	=136
8b-X\)	16r	.
.	(16dd\LL	.
8r	16gg\	.
.	16bb-X\JJ)	.
16r	8ddd\	.
(16b-\	.	.
=137	=137	=137
8a/)	16r	.
.	(16cc\LL	.
8r	16ff\	.
.	16aa\JJ	.
16r	8ccc\)	.
(16a/	.	.
=138	=138	=138
8g/)	16r	.
.	(16b-\LL	.
8r	16ee\	.
.	16gg\JJ	.
16r	8bb-\)	.
(16g/	.	.
=139	=139	=139
8f/)	16r	.
.	(16a\LL	.
8r	16cc\	.
.	16ff\JJ	.
16r	8aa\)	.
(16f/	.	.
=140	=140	=140
4b-/)	16r	.
.	(16dd\LL	.
.	16gg\	.
.	16ff#\	.
8r	16aa\	.
.	16gg\JJ	.
=141	=141	=141
4.r	16bb-\LL	.
.	16aa\	.
.	16ccc\	.
.	16bb-\	.
.	16ddd\	.
.	16ccc#\JJ	.
*clefF4	*	*
=142	=142	=142
8r	8ddd\)	.
8r	8r	.
(8Bn\	8a\ (8ff\	p
=143	=143	=143
8c\)	8g\ 8ee\)	.
8r	8r	.
(8BBn/	8r	f
=144	=144	=144
8C/)	8r	.
8r	8r	.
*clefG2	*	*
(8bn\	8aa\ (8fff\	p
=145	=145	=145
8cc\)	8gg\ 8eee\)	.
8r	8r	.
*clefF4	*	*
(8Bn\	8r	f
=146	=146	=146
8c\)	8r	.
8r	8r	.
(8BBn/	8a\ (8ff\	p
=147	=147	=147
8C/)	8g\ 8ee\)	f
8r	8r	.
(8BBBn/	8r	.
=148	=148	=148
8CC/)	4.r;	.
8r	.	.
8r;	.	.
=149	=149	=149
4.r	8.bb-X\L	p
.	16bb-\k	.
.	8bb-\J	.
=150	=150	=150
.	(32bb-q/LLL	.
.	32cccq/JJJ	.
4.r	8.ddd\L)	.
.	16ccc\k	.
.	8bb-\J	.
=151	=151	=151
4.r	8.bb-\L	.
.	16bb-\k	.
.	8bb-\J	.
=152	=152	=152
.	(32bb-q/LLL	.
.	32cccq/JJJ	.
4.r	8.ddd\L)	.
.	16ccc\k	.
.	8bb-\J	.
*clefG2	*	*
=153	=153	=153
(16f/LL	8aa\	.
16cc/	.	.
16a/	8r	.
16cc/	.	.
16f/	8aa\	.
16cc/JJ	.	.
=154	=154	=154
16e/LL	(4ccc\	fp
16cc/	.	.
16g/	.	.
16cc/	.	.
16e/	8bb-\)	.
16cc/JJ	.	.
=155	=155	=155
16f/LL	8aa\	.
16cc/	.	.
16a/	8r	.
16cc/	.	.
16f/	8aa\	.
16cc/JJ	.	.
=156	=156	=156
16e/LL	(4ccc\	fp
16cc/	.	.
16g/	.	.
16cc/	.	.
16e/	8bb-\)	.
16cc/JJ	.	.
=157	=157	=157
16f\LL	8aa\	.
16a\	.	.
16cc\	8r	.
16ff\	.	.
16ee\	8aa\	.
16ff\JJ)	.	.
=158	=158	=158
4dd\ 4ff\	(8ccc\L	f
.	8bb-\)	.
8cc\ 8ee\	8aa'\J	p
=159	=159	=159
4b-\ 4dd\	(8aa\L	f
.	8gg\)	.
(8bn\	8ff'\J	p
=160	=160	=160
8cc\)	8.ffT\L	.
8r	.	.
.	16gg\k	.
8r	8ee\J	.
*clefF4	*	*
=161	=161	=161
8.G\L	8.b-X\L	p
16G\k	16b-\k	.
8G\J	8b-\J	.
=162	=162	=162
(32Gq/LLL	(32b-q/LLL	.
32Aq/JJJ	32ccq/JJJ	.
8.B-\L)	8.dd\L)	.
16A\k	16cc\k	.
8G\J	8b-\J	.
=163	=163	=163
8.G\L	8.b-\L	.
16G\k	16b-\k	.
8G\J	8b-\J	.
=164	=164	=164
(32Gq/LLL	(32b-q/LLL	.
32Aq/JJJ	32ccq/JJJ	.
8.B-\L)	8.dd\L)	.
16A\k	16cc\k	.
8G\J	8b-\J	.
=165	=165	=165
!	!LO:TX:a:t=legato	!
8F\	16a/LL	.
.	16f/	.
8r	16c/	.
.	16f/	.
8r	16a/	.
.	16f/JJ	.
=166	=166	=166
(4.EE/ 4.E/	16cc/LL	fp
.	16c/	.
.	16bn/	.
.	16c/	.
.	16b-/	.
.	16c/JJ	.
=167	=167	=167
8FF/) 8F/	16a/LL	.
.	16f/	.
8r	16c/	.
.	16f/	.
8r	16a/	.
.	16f/JJ	.
=168	=168	=168
(4.EE/ 4.E/	16cc/LL	fp
.	16c/	.
.	16bn/	.
.	16c/	.
.	16b-/	.
.	16c/JJ	.
=169	=169	=169
8FF/) 8F/	16a\LL	.
.	16cc\	.
8r	16ff\	.
.	16ee\	.
8r	16dd\	.
.	16cc\JJ	.
=170	=170	=170
4d\ 4f\	16b-\LL	f
.	16cc\	.
.	16dd\	.
.	16b-\	.
8c\ 8e\	16g#\	p
.	16a\JJ	.
=171	=171	=171
4B-\ 4d\	16gn/LL	f
.	16a/	.
.	16b-/	.
.	16g/	.
8A\ 8c\	16e/	p
.	16f/JJ	.
=172	=172	=172
8B-\L	16g/LL	f
.	16b-/	.
8c\	16a/	.
.	16f/	.
8C\J	16e/	.
.	16g/JJ	.
=173	=173	=173
8F\	16f/LL	.
.	16g/	.
8r	16a/	.
.	16f/	.
8r	16d/	.
.	16c/JJ	.
=174	=174	=174
4D\ 4F\	16B-j/LL	f
.	16cj/	.
.	16dj/	.
.	16B-j/	.
8C\ 8E\	16G#j/	p
.	16Aj/JJ	.
=175	=175	=175
4BB-\ 4D\	16Gnj/LL	f
.	16Aj/	.
.	16B-j/	.
.	16Gj/	.
8AA\ 8C\	16Ej/	p
.	16Fj/JJ	.
=176	=176	=176
8BB-\L	16Gj/LL	f
.	16B-j/	.
8C\	16Aj/	.
.	16Fj/	.
8CC\J	16Ej/	p
.	16Gj/JJ	.
=177	=177	=177
*^	*	*
8F/	8FF\	8r	.
8r	8ryy	8cc'\L	p
8r	8ryy	8a'\J	.
*v	*v	*	*
=178	=178	=178
8r	8f'/	.
8A\ 8e-\L	8r	.
8A\ 8e-\J	8r	.
=179	=179	=179
8B-\ 8d\	8r	.
8r	8ff'\L	.
8r	8dd'\J	.
*clefG2	*	*
=180	=180	=180
8r	8b-'\	.
8d/ 8f/L	8r	.
8d/ 8f/J	8r	.
=181	=181	=181
8c/ 8en/	8r	.
8r	8bb-'\L	.
8r	8gg'\J	.
=182	=182	=182
8r	8ee'\	.
8c/ 8b-/L	8r	.
8c/ 8b-/J	8r	.
=183	=183	=183
8f/ 8a/	16r	.
.	(16ff\LL	f
8r	16ee\	.
.	16ff\	.
8r	16aa\	.
.	16ccc\JJ)	.
=184	=184	=184
8c/ 8g/ 8b-/	16r	.
.	(16bb-\LL	.
8r	16aa\	.
.	16bb-\	.
8r	16gg\	.
.	16ee\JJ)	.
=185	=185	=185
8f/ 8a/	16r	.
.	(16ff\LL	.
8r	16ee\	.
.	16ff\	.
8r	16cc\	.
.	16a\JJ)	.
*clefF4	*	*
=186	=186	=186
8C\ 8E\ 8G\	16r	.
.	(16b-/LL	.
8r	16a/	.
.	16b-/	.
8r	16g/	.
.	16e/JJ)	.
=187	=187	=187
(16FF/LL	4f/	.
16F/	.	.
16E/	.	.
16F/	.	.
16G/	8r	.
16F/JJ)	.	.
=188	=188	=188
(16A\LL	4f:/ 4a:/ 4cc:/	.
16F\	.	.
16C\	.	.
16F\	.	.
16AA\	8r	.
16C\JJ)	.	.
=189	=189	=189
8FF/L	8a\ 8cc\ 8ff\L	.
8AA/	8a\ 8cc\ 8ff\	.
8C/J	8a\ 8cc\ 8ff\J	.
=190	=190	=190
8FF/	8a\ 8cc\ 8ff\	.
8r	8r	.
=:|!	=:|!	=:|!
*-	*-	*-
!!!SMS: Alte Mozart-Ausgabe, Band 20, Breitkopf &amp; H&auml;rtel 1877-1883.
!!!ONB: Stich und Druck von Breitkopf &amp; H&auml;rtel in Leipzig
!!!ONB: Ausgegeben 1878
!!!ENC: Craig Stuart Sapp
!!!END: 2009/09/24/
!!!EED: Craig Stuart Sapp
!!!EEV: 2016/07/31/
!!!title: @{OTL}, K 280 (189e), @{OMV}
